X:1
T:The United States Sacred Harmony , 1799 D minor
T:Charles Wesley, 1749 668. 669.*
T:Triumph
T:Transcribed from  The United States Sacred Harmony, 1799.
%%score [ 1 2 3 4 ]
L:1/8
Q:1/4=90
M:3/4
K:F
V:1 treble nm="Tr." snm="Tr."
V:2 treble nm="C." snm="C."
V:3 treble-8 nm="T." snm="T."
V:4 bass nm="B." snm="B."
V:1
 (AG) | F>G A2 A2 | A4 (GF) | G3 A F>E | D4 (Ac) | d2 c2 d2 | A3 B AG | A4 (Ac) | d2 c2 d2 | %9
w: 1.~Come,~ _|let * us a-|scend, My com-|pa- nion and *|friend, To a|taste of the|ban- quet a- *|bove; If thy|heart be as|
w: 2.~By~ _|faith * we are|come To~ our|per- ma- nent *|home, By~ _|hope we the|rap- ture im- *|prove; By~ _|love we still|
 !fermata!A4 (GF) | c3 A FG | A4 Ac | d2 fe d2 | A2 A2 A2 | A6- | A6 | z4 Ac | d2 fe d2 | %18
w: mine, If for|Je- sus it *|pine, Come up|in- to * the|cha- riot of|love,~|_|Come up|in- to * the|
w: rise, And look|down on the *|skies; For the|hea- ven * of|hea- vens is|love,~|_|For the|hea- ven * of|
 c2 AB A2 | A6 |] %20
w: cha- riot * of|love.|
w: hea- vens * is|love.|
V:2
 (AB) | A2 A2 A2 | A4 (GA) | B3 A G2 | A4 (AF) | G2 F2 G2 | A3 G FE | D4 (FG) | A2 F2 D>E | %9
w: 3.~Who on|earth can con-|ceive How~ _|hap- py we|live In the|ci- ty of|God the great *|King! What a|con- cert of *|
w: 4.~What a|rap- tu- rous|song, When the|glo- ri- fied|throng In the|spi- rit of|har- mo- ny *|join! Join~ _|all the glad *|
 !fermata!F4 (EF) | G3 A GF | (F2 E2) FG | A2 F2 A2 | c2 A2 A2 | A6- | A6 | z4 DE | F2 A2 B2 | %18
w: praise, When our|Je- su- s' *|grace * The whole|hea- ven- ly|com- pa- ny|sing,~|_|The whole|hea- ven- ly|
w: choirs, Hearts,~ _|voi- ces and *|lyres, * And the|bur- den is|mer- cy di-|vine,~|_|And the|bur- den is|
 A2 A2 A2 | A6 |] %20
w: com- pa- ny|sing!|
w: mer- cy di-|vine.|
V:3
 (AB) | de/f/ e2 d>e | (d2 c2) (BA) | B3 c d/c/B | A4 (A/B/c) | B2 A2 G2 | c3 d cB | A4 (FG) | %8
w: 5.~Ha- le-|lu- * * jah they *|cry * To the|King of the * *|sky, To * the|great ev- er-|las- ting I *|Am, To the|
w: 6.~Our~ _|fore- * * heads pro- *|clam * His in-|ef- fa- ble * *|name, Our~ _ _|bo- dies his|glo- ry dis- *|play; A~ _|
 A<F D2 E<G | !fermata!F4 (ED) | G3 A B>G | A4 FG | AF D2 f2 | e2 d2 c2 | (d3 e de/f/ | A3 cBA | %16
w: Lamb * that was *|slain, And~ _|li- veth a- *|gain, Hal- le-|lu- * jah to|God and the|Lamb,~ _ _ _ _|_ _ _ _|
w: day * with- out *|night, We~ _|feast in his *|sight, And e-|ter- * ni- ty|seems as a|day,~ _ _ _ _|_ _ _ _|
 G4) FG | AF D2 f2 | e2 d2 c2 | d6 |] %20
w: * Hal- le-|lu- * jah to|God and the|Lamb!|
w: * And e-|ter- * ni- ty|seems as a|day!|
V:4
 (D,G,) | D,2 A,,2 D,2 | A,4 (D,D,) | D,3 C, D,E, | F,4 (E,D,) | G,2 F,2 G,2 | A,3 G, F,E, | %7
 D,4 ((D,E,)) | F,2 A,2 A,,2 | !fermata!D,4 (A,,A,,) | C,3 C, D,2 | A,,4 D,E, | F,2 A,2 D2 | %13
 C2 D2 F,2 | (D,3 E,F,G, | A,4 D,2 | %16
 C,4)"^__________________________________________\n*The lines of Wesley's stanzas have varying lengths.\nThe tune was first published in Amos Pilsbury's \nThe United States Sacred Harmony\n,\n1799, \nbut not attributed to anyone; composer is unknown. It may be a folk hymn." D,E, | %17
 F,2 A,2 D2 | %18
 A,2"^__________________________________________\nEdited by B. C. Johnston, 2018.   1. Measure 1: one quarter-note in original, \n   changed to an eighth-note and an eighth-note added.   2. Dashed ties \n   added to eighth-notes in measures 3, 5, 8, and 10." F,2 A,2 | %19
 D,6 |] %20

